!!!COM: Anonim
!!!CDT: [?]
!!!OTL@@LAT: Angelus domini ad pastores
!!!OTL@@POL: Narodzil sie nam dziś
!!!TXO: Latin, Polish
!!!ODT: 
!!!GTL: Hymnbook A
!!!ARL: Opactwo św. Wojciecha, Staniątki 
!!!voices:	1
**kern
*staff1
*I"[Canto]
*oclefC1
*clefG2
*k[b-]
!*met(c|)
*M2/1
=-
!LO:TX:Y=0:t=clef under sticker
1cc
2cc
2cc
1a
2c
2c
1b-
2b-
2b0
0g
=-
1cc
2cc
2cc
2a
2cc
2b-
2a
1g
1f
0.e
=-
!LO:TX:Y=0:t=p. 24r
2B-
1d
2f
2f
1.e
2c
1d
1e
1f
1g
1a
1g
1f
1b-
1a
2g
2f
2e
1f
2e
0f
=-
1f
2a
4a
4a
4g
4f
4e
4g
1f
2r
=-
!LO:TX:Y=0:t=p. 23v
2f
2e
2d
1f
1r
2r
2a
2g
2f
2e
1f
2e
0f
=-
1a
1a
4a
4a
4a
4a
2a
2cc
1a
1a
1g
=-
!LO:TX:Y=0:t=p. 24r
2g
4a
4a
4g
4g
4a
4a
4g
4g
4a
4a
4g
4g
4a
4a
2.a
4g
1f
2e
0f
==
*-
!!title: @{OTL}, @{GTL}: @{pag}, ed. @{ENC}
!!!pag: pp. 23v-24r
!!!GTL: Hymnbook A
!!!EFL: 
!!!YEM: Creative Commons CC/BY/NC/SA 4.0
!!!ENC: Marcin Konik
!!!END: 2015-03-17
!!!EED: Marcin Konik
!!!EEV: 
!!!ONB: Encoded in vim by Marcin Konik
!!!CharacterEncoding: utf-8
!!!RDF**kern: l=long note in original notation
!!!RDF**kern: i=editorial accidental
!!muse2ps: z14jc180F
